Flat-Remix-Dark/panel/indicator-keyboard-Ha.svg

<svg xmlns="http://www.w3.org/2000/svg" width="22" height="22" version="1.1">
 <defs>
  <style id="current-color-scheme" type="text/css">
   .ColorScheme-Text { color:#d3dae3; } .ColorScheme-Highlight { color:#5294e2; }
  </style>
 </defs>
 <rect style="opacity:0" width="22" height="22" x="0" y="0"/>
 <path style="fill:none;stroke:currentColor;stroke-width:1.99999976;stroke-linecap:round" class="ColorScheme-Text" d="m 4.9999989,10.999998 4.0000022,0 m 0,4.000002 0,-8.0000003 M 4.9999988,15 l 0,-8.0000003 0,0"/>
 <path style="fill:none;stroke:currentColor;stroke-width:1.99999976;stroke-linecap:round;stroke-linejoin:bevel" class="ColorScheme-Text" d="m 12.999999,12.004811 4.000001,0 m -3.9999,2.999999 0,-5.9999989 M 17,15.00481 17,9.0048111 m -4.000001,0 -1.5e-5,-0.9995518 c 0,-1 0,-1 2.000016,-1.0004491 1.999984,-4.491e-4 1.999977,4.491e-4 1.999984,1.0004491 C 17,10 17,9.0048111 17,9.0048111"/>
</svg>

<svg xmlns="http://www.w3.org/2000/svg" width="12pt" height="12pt" version="1.1" viewBox="0 0 12 12">
 <g>
  <path style="fill:none;stroke-width:2;stroke-linecap:round;stroke:rgb(82.745098%,85.490196%,89.019608%)" d="M 5 11 L 9 11 M 9 15 L 9 7 M 5 15 L 5 7" transform="matrix(0.5,0,0,0.5,0.5,0.5)"/>
  <path style="fill:none;stroke-width:2;stroke-linecap:round;stroke-linejoin:bevel;stroke:rgb(82.745098%,85.490196%,89.019608%)" d="M 13 12.007812 L 17 12.007812 M 13 15.007812 L 13 9.007812 M 17 15.007812 L 17 9.007812 M 13 9.007812 L 13 8.007812 C 13 7.007812 13 7.007812 15 7.007812 C 17 7.007812 17 7.007812 17 8.007812 C 17 10 17 9.007812 17 9.007812" transform="matrix(0.5,0,0,0.5,0.5,0.5)"/>
 </g>
</svg>
